X:1
T:Send Out the Tidings
T:Send Out the Tidings
T:Joseph Lincoln Hall
T:Ida Lilliard Reed, 1900
T:Public Domain Courtesy of the Cyber Hymnal™
T:Public Domain Courtesy of the Cyber Hymnal™
C:Joseph Lincoln Hall
Z:Public Domain
Z:Courtesy of the Cyber Hymnal™
%%score ( 1 2 ) ( 3 4 )
L:1/8
Q:1/4=97
M:4/4
K:Bb
V:1 treble 
V:2 treble 
V:3 bass 
V:4 bass 
V:1
 [DB]2 [DB]>[Ec] [DB][DA][DG][DF] | [DB]2 [Dc]2 [Dd]4 | [Ed]2 [Ec]>[D=B] [Ec][Ge][Fd][Ec] | %3
w: 1.~Send out the tid- ings, let the|an- them ring,|Tell to all na- tions that the|
w: 2.~Send out the tid- ings from the|si- lent grave,|Je- sus is ris- en sin- ful|
w: 3.~Send out the tid- ings all the|na- tions o’er,|Let all the peo- ple crown Him|
 [DB]2 [EG]2 [DF]4 | [DB]2 [DB]>[Ec] [DB][DA][DG][DF] | [DB]2 [Dc]2 [Dd]4 | %6
w: Lord is king;|Emp- ty the gloom- y pri- son,|past is night,|
w: men to save,|For sin He suf- fered, died and|rose a- gain,|
w: ev- er- more;|Come now and hail the Vic- tor|who was slain,|
 [Fc]2 [Fc]>[Fd] [=Ec][EB][EG][Ec] | F6 F2"^Girls" | EFGA d2 c2 | cB (AB) F4 | (EF)GA [GB]2 [Gc]2 | %11
w: Now He is ris- en in- to|light. *||||
w: Strong and tri- umph- ant sing the|strain. Then|let the tid- ings ring from|to shore to * shore,|Je- * sus is ris’n for|
w: Lo! He is ris- en, crowned to|reign. *||||
 [^Fd]6"^Boys" d2 | edcB A2 Bc | dcBA G2"^All" (GA) | B2 (AG) F2 E2 | (D4 !fermata![EF]4) || %16
w: |||||
w: aye; O|sing the song of joy, Death can|no long- er de- stroy, Its *|power has * passed a-|way. *|
w: |||||
"^Refrain" [DB]2 [DB]>[Ec] [DB][DA][DG][DF] | [DB]2 [Dc]2 [Dd]4 | %18
w: ||
w: Send out the tid- ings, let the|an- them ring,|
w: ||
 [Ed]2 [Ec]>[D=B] [Ec][Ge][Fd][Ec] | [DB]2 [EG]2 [DF]4 | [DB]2 [DB]>[Ec] [DB][DA][DG][DF] | %21
w: |||
w: Tell to all na- tions that the|Lord is king;|Je- sus is ris- en, let the|
w: |||
 [DB]2 [Fd]2 [Ff]2 [Fe]2 | [Fd]2 [Fd]>[Ge] [Fd][Ec][DB][CA] | [DB]6 z2 |] %24
w: |||
w: tid- ings swell, He|con- quered the grave and van- quished|hell.|
w: |||
V:2
 x8 | x8 | x8 | x8 | x8 | x8 | x8 | F6 x2 | x8 | x8 | x8 | x8 | x8 | x6 GA | B2 AG F2 E2 | A,8 || %16
 x8 | x8 | x8 | x8 | x8 | x8 | x8 | x8 |] %24
V:3
 [B,,F,]2 [F,,F,]2 [B,,F,]2 [F,,F,]2 | [B,,F,]2 [F,,F,]2 [B,,F,]2 [F,,F,]2 | %2
 [F,A,]2 [F,A,]2 [F,A,]2 [F,A,]2 | [B,,F,]2 (G,A,) (B,G,F,D,) | %4
 [B,,F,]2 [F,,F,]2 [B,,F,]2 [F,,F,]2 | [B,,F,]2 [F,,F,]2 ([B,,F,]2 [F,,F,]2) | %6
 [C,B,]2 [C,B,]2 [C,G,]2 [C,B,]2 | (z2 [F,A,]>[F,A,] [F,A,]2) z2 | %8
 [F,,F,]2 [F,A,E]2 [F,A,E]2 [F,A,E]2 | B,,2 [F,B,D]2 [F,B,D]2 [F,B,D]2 | %10
 [F,,F,]2 [F,A,E]2 [E,B,]2 [E,G,]2 | (z2 [D,A,]>[D,A,] [D,A,]2) z2 | %12
 [F,,F,]2 [F,A,E]2 [F,A,E]2 [F,A,E]2 | [G,,G,]2 [G,B,D]2 [G,B,D]2 G,A, | B,2 A,G, F,2 E,2 | %15
 ([D,^F,]4 !fermata![C,=F,]4) || [B,,F,]2 [F,,F,]2 [B,,F,]2 [F,,F,]2 | %17
 [B,,F,]2 [F,,F,]2 ([B,,F,]2 [F,,F,]2) | [F,A,]2 [F,A,]2 [F,A,]2 [F,A,]2 | %19
 [B,,F,]2 (G,A,) (B,G,F,D,) | [B,,F,]2 [F,,F,]2 [B,,F,]2 [F,,F,]2 | %21
 [B,,F,]2 [B,,B,]2 [D,B,]2 [E,B,]2 | [F,B,]2 [F,B,]2 [F,A,]2 [F,A,]2 | [B,,F,]6 z2 |] %24
V:4
 x8 | x8 | x8 | x2 B,,2 B,,4 | x8 | x8 | x8 | F,6 x2 | x8 | x8 | x8 | [D,A,]6 x2 | x8 | x6 (G,A,) | %14
 B,2 (A,G,) F,2 E,2 | x8 || x8 | x8 | x8 | x2 B,,2 B,,4 | x8 | x8 | x8 | x8 |] %24

